images/datosIco2.svg

<svg viewBox="0 0 45.07 42.37" xmlns="http://www.w3.org/2000/svg"><g fill="#fff"><path d="m42.31 18.33a.83.83 0 0 0 -.76-.48h-2.47a18.34 18.34 0 1 0 -2.15 12.51 1.67 1.67 0 0 0 -2.93-1.67 15 15 0 1 1 1.62-10.84h-2.41a.83.83 0 0 0 -.64 1.37l4.17 5a.83.83 0 0 0 1.28 0l4.17-5a.85.85 0 0 0 .12-.89z"/><path d="m21 7a1.67 1.67 0 0 0 -1.67 1.67v10.12a2.92 2.92 0 0 0 1.67 5.31 2.84 2.84 0 0 0 1.23-.28l5.8 3.35a1.71 1.71 0 0 0 .84.23 1.67 1.67 0 0 0 .83-3.12l-5.81-3.35a2.93 2.93 0 0 0 -1.22-2.13v-10.13a1.67 1.67 0 0 0 -1.67-1.67zm0 15.43a1.25 1.25 0 1 1 1.25-1.25 1.25 1.25 0 0 1 -1.25 1.25z"/></g></svg>

<svg id="_1170px_grid" data-name="1170px grid" xmlns="http://www.w3.org/2000/svg" viewBox="0 0 45.07 42.37"><defs><style>.cls-1{fill:#fff;}</style></defs><title>Artboard 10 copy</title><g id="Layer_1" data-name="Layer 1"><path class="cls-1" d="M42.31,18.33a.83.83,0,0,0-.76-.48H39.08a18.34,18.34,0,1,0-2.15,12.51A1.67,1.67,0,0,0,34,28.69a15,15,0,1,1,1.62-10.84H33.21a.83.83,0,0,0-.64,1.37l4.17,5a.83.83,0,0,0,1.28,0l4.17-5A.85.85,0,0,0,42.31,18.33Z"/><path class="cls-1" d="M21,7a1.67,1.67,0,0,0-1.67,1.67V18.79A2.92,2.92,0,0,0,21,24.1a2.84,2.84,0,0,0,1.23-.28l5.8,3.35a1.71,1.71,0,0,0,.84.23,1.67,1.67,0,0,0,.83-3.12l-5.81-3.35a2.93,2.93,0,0,0-1.22-2.13V8.67A1.67,1.67,0,0,0,21,7Zm0,15.43a1.25,1.25,0,1,1,1.25-1.25A1.25,1.25,0,0,1,21,22.43Z"/></g></svg>
